Flat Remix Dark/panel/indicator-keyboard-Mi.svg

<svg xmlns="http://www.w3.org/2000/svg" width="22" height="22" version="1.1">
 <defs>
  <style id="current-color-scheme" type="text/css">
   .ColorScheme-Text { color:#d3dae3; } .ColorScheme-Highlight { color:#5294e2; }
  </style>
 </defs>
 <rect style="opacity:0" width="22" height="22" x="0" y="0"/>
 <path style="fill:none;stroke:currentColor;stroke-width:1.99999976;stroke-linecap:round;stroke-linejoin:round" class="ColorScheme-Text" d="m 9.9995852,15 0,-8.0000003 m -5.9999998,0 2.9999999,3.9999983 2.9999999,-3.9999983 M 3.9995854,15 l 0,-8.0000003"/>
 <path style="fill:none;stroke:currentColor;stroke-width:1.99999976;stroke-linecap:round" class="ColorScheme-Text" d="m 14,15 3.999999,0 M 14,6.9999997 l 3.999999,0 M 16.000001,15 l 0,-8.0000003"/>
</svg>

<svg xmlns="http://www.w3.org/2000/svg" width="12pt" height="12pt" version="1.1" viewBox="0 0 12 12">
 <g>
  <path style="fill:none;stroke-width:2;stroke-linecap:round;stroke-linejoin:round;stroke:rgb(82.745098%,85.490196%,89.019608%)" d="M 10 15 L 10 7 M 4 7 L 7 11 L 10 7 M 4 15 L 4 7" transform="matrix(0.5,0,0,0.5,0.5,0.5)"/>
  <path style="fill:none;stroke-width:2;stroke-linecap:round;stroke:rgb(82.745098%,85.490196%,89.019608%)" d="M 14 15 L 18 15 M 14 7 L 18 7 M 16 15 L 16 7" transform="matrix(0.5,0,0,0.5,0.5,0.5)"/>
 </g>
</svg>
